images/handshake1.svg

<?xml version="1.0" encoding="UTF-8" standalone="no"?>
<svg
   xmlns:dc="http://purl.org/dc/elements/1.1/"
   xmlns:cc="http://creativecommons.org/ns#"
   xmlns:rdf="http://www.w3.org/1999/02/22-rdf-syntax-ns#"
   xmlns:svg="http://www.w3.org/2000/svg"
   xmlns="http://www.w3.org/2000/svg"
   xmlns:sodipodi="http://sodipodi.sourceforge.net/DTD/sodipodi-0.dtd"
   xmlns:inkscape="http://www.inkscape.org/namespaces/inkscape"
   color-interpolation="auto"
   color-rendering="auto"
   fill="black"
   fill-opacity="1"
   font-family="'Dialog'"
   font-size="12px"
   font-style="normal"
   font-weight="normal"
   height="308"
   image-rendering="auto"
   shape-rendering="auto"
   stroke="black"
   stroke-dasharray="none"
   stroke-dashoffset="0"
   stroke-linecap="square"
   stroke-linejoin="miter"
   stroke-miterlimit="10"
   stroke-opacity="1"
   stroke-width="1"
   text-rendering="auto"
   width="1750"
   id="svg2"
   version="1.1"
   inkscape:version="0.91 r13725"
   sodipodi:docname="handshake1.svg">
  <metadata
     id="metadata53">
    <rdf:RDF>
      <cc:Work
         rdf:about="">
        <dc:format>image/svg+xml</dc:format>
        <dc:type
           rdf:resource="http://purl.org/dc/dcmitype/StillImage" />
      </cc:Work>
    </rdf:RDF>
  </metadata>
  <sodipodi:namedview
     pagecolor="#ffffff"
     bordercolor="#666666"
     borderopacity="1"
     objecttolerance="10"
     gridtolerance="10"
     guidetolerance="10"
     inkscape:pageopacity="0"
     inkscape:pageshadow="2"
     inkscape:window-width="1920"
     inkscape:window-height="1058"
     id="namedview51"
     showgrid="false"
     inkscape:zoom="0.16914286"
     inkscape:cx="875"
     inkscape:cy="148.08784"
     inkscape:window-x="-8"
     inkscape:window-y="-8"
     inkscape:window-maximized="1"
     inkscape:current-layer="svg2" />
  <!--Generated by the Batik Graphics2D SVG Generator-->
  <defs
     id="genericDefs" />
  <g
     id="g5"
     transform="translate(717.42305,3.8594)">
    <g
       font-size="0.75px"
       transform="matrix(50,0,0,50,32.285,29.09)"
       id="g7"
       style="font-size:0.75px;font-family:sans-serif;fill:#0000b2;stroke:#0000b2">
      <path
         d="m -0.2062,0.1044 q -0.0648,0.0597 -0.1249,0.0597 -0.0494,0 -0.082,-0.0309 -0.0326,-0.031 -0.0326,-0.0782 0,-0.0652 0.0548,-0.1002 0.0547,-0.0349 0.1569,-0.0349 l 0.0172,0 0,-0.048 q 0,-0.0692 -0.071,-0.0692 -0.0572,0 -0.1235,0.0351 l 0,-0.0597 q 0.0729,-0.0296 0.1366,-0.0296 0.0667,0 0.0984,0.03 0.0316,0.03 0.0316,0.0934 l 0,0.1802 q 0,0.0618 0.0381,0.0618 0.0048,0 0.0139,-0.0014 l 0.0052,0.0399 q -0.0246,0.0117 -0.0542,0.0117 -0.0506,0 -0.0645,-0.0597 z m -0.0106,-0.0392 0,-0.1029 -0.0242,-7e-4 q -0.0593,0 -0.0959,0.0225 -0.0366,0.0225 -0.0366,0.0592 0,0.026 0.0183,0.0439 0.0183,0.018 0.0447,0.018 0.045,0 0.0937,-0.04 z m 0.4186,0.0898 0,-0.1897 -0.1897,0 0,-0.0542 0.1897,0 0,-0.1897 0.0542,0 0,0.1897 0.1897,0 0,0.0542 -0.1897,0 0,0.1897 z"
         id="path9"
         inkscape:connector-curvature="0"
         style="stroke:none" />
    </g>
    <g
       font-size="0.75px"
       transform="matrix(50,0,0,50,282.2839,29.0906)"
       id="g11"
       style="font-size:0.75px;font-family:sans-serif;fill:#0000b2;stroke:#0000b2">
      <path
         d="m -0.4574,0.21 0,-0.5827 0.0721,0 0,0.2553 q 0.0444,-0.0835 0.133,-0.0835 0.0718,0 0.113,0.0524 0.0412,0.0523 0.0412,0.1432 0,0.0988 -0.0467,0.1594 -0.0467,0.0606 -0.1229,0.0606 -0.0707,0 -0.1176,-0.0542 L -0.394,0.21 Z m 0.0721,-0.0993 q 0.0557,0.0498 0.1062,0.0498 0.1041,0 0.1041,-0.1585 0,-0.1399 -0.0923,-0.1399 -0.0605,0 -0.118,0.0655 z m 0.5988,0.0949 0,-0.1897 -0.1897,0 0,-0.0542 0.1897,0 0,-0.1897 0.0542,0 0,0.1897 0.1897,0 0,0.0542 -0.1897,0 0,0.1897 z"
         id="path13"
         inkscape:connector-curvature="0"
         style="stroke:none" />
    </g>
    <g
       font-size="0.75px"
       transform="matrix(50,0,0,50,32.2839,279.0906)"
       id="g15"
       style="font-size:0.75px;font-family:sans-serif;fill:#0000b2;stroke:#0000b2">
      <path
         d="m -0.3896,0.21 0,-0.5827 0.0721,0 0,0.2553 q 0.0443,-0.0835 0.1329,-0.0835 0.0718,0 0.113,0.0524 0.0412,0.0523 0.0412,0.1432 0,0.0988 -0.0467,0.1594 -0.0467,0.0606 -0.1229,0.0606 -0.0706,0 -0.1175,-0.0542 L -0.3263,0.21 Z m 0.0721,-0.0993 q 0.0557,0.0498 0.1062,0.0498 0.104,0 0.104,-0.1585 0,-0.1399 -0.0923,-0.1399 -0.0604,0 -0.1179,0.0655 z m 0.382,-0.0948 0,-0.0542 0.3251,0 0,0.0542 z"
         id="path17"
         inkscape:connector-curvature="0"
         style="stroke:none" />
    </g>
    <g
       font-size="0.75px"
       transform="matrix(50,0,0,50,282.2839,279.0906)"
       id="g19"
       style="font-size:0.75px;font-family:sans-serif;fill:#0000b2;stroke:#0000b2">
      <path
         d="m -0.1384,0.0949 q -0.0648,0.0597 -0.1249,0.0597 -0.0494,0 -0.082,-0.0309 -0.0326,-0.031 -0.0326,-0.0782 0,-0.0652 0.0547,-0.1002 0.0548,-0.0349 0.1569,-0.0349 l 0.0173,0 0,-0.048 q 0,-0.0692 -0.0711,-0.0692 -0.0571,0 -0.1234,0.0351 l 0,-0.0597 q 0.0729,-0.0296 0.1366,-0.0296 0.0666,0 0.0983,0.03 0.0317,0.03 0.0317,0.0934 l 0,0.1802 q 0,0.0619 0.0381,0.0619 0.0047,0 0.0139,-0.0015 l 0.0051,0.0399 q -0.0245,0.0117 -0.0542,0.0117 -0.0505,0 -0.0644,-0.0597 z m -0.0106,-0.0391 0,-0.1029 -0.0242,-8e-4 q -0.0593,0 -0.096,0.0225 -0.0366,0.0226 -0.0366,0.0592 0,0.026 0.0183,0.0439 0.0183,0.018 0.0447,0.018 0.045,0 0.0938,-0.0399 z m 0.2017,-0.1 0,-0.0542 0.3252,0 0,0.0542 z"
         id="path21"
         inkscape:connector-curvature="0"
         style="stroke:none" />
    </g>
    <g
       font-size="0.75px"
       transform="matrix(50,0,0,50,532.2839,529.0906)"
       id="g23"
       style="font-size:0.75px;font-family:sans-serif;stroke-width:0.02">
      <path
         d="m -9.4543,-10 3.4969,0"
         id="path25"
         inkscape:connector-curvature="0"
         style="fill:none" />
      <path
         d="m -5.9574,-10.075 0,0.15 0.4,-0.075 z"
         id="path27"
         inkscape:connector-curvature="0"
         style="stroke:none" />
    </g>
    <g
       font-size="0.75px"
       transform="matrix(50,0,0,50,532.2839,529.0906)"
       id="g29"
       style="font-size:0.75px;font-family:sans-serif;stroke-width:0.02">
      <path
         d="m -5,-9.5182 0,3.748"
         id="path31"
         inkscape:connector-curvature="0"
         style="fill:none" />
      <path
         d="m -4.925,-5.7702 -0.15,0 0.075,0.4 z"
         id="path33"
         inkscape:connector-curvature="0"
         style="stroke:none" />
    </g>
    <g
       font-size="0.75px"
       transform="matrix(50,0,0,50,532.2839,529.0906)"
       id="g35"
       style="font-size:0.75px;font-family:sans-serif;stroke-width:0.02">
      <path
         d="m -5.4779,-5 -3.6325,0"
         id="path37"
         inkscape:connector-curvature="0"
         style="fill:none" />
      <path
         d="m -9.1104,-4.925 0,-0.15 -0.4,0.075 z"
         id="path39"
         inkscape:connector-curvature="0"
         style="stroke:none" />
    </g>
    <g
       font-size="0.75px"
       transform="matrix(50,0,0,50,532.2839,529.0906)"
       id="g41"
       style="font-size:0.75px;font-family:sans-serif;stroke-width:0.02">
      <path
         d="m -10,-5.4818 0,-3.7304"
         id="path43"
         inkscape:connector-curvature="0"
         style="fill:none" />
      <path
         d="m -10.075,-9.2122 0.15,0 -0.075,-0.4 z"
         id="path45"
         inkscape:connector-curvature="0"
         style="stroke:none" />
    </g>
    <g
       font-size="0.75px"
       transform="matrix(50,0,0,50,32.2839,161.7406)"
       id="g47"
       style="font-size:0.75px;font-family:sans-serif;stroke-width:0.02">
      <circle
         cx="0"
         cy="0"
         r="0.2105"
         id="circle49"
         style="stroke:none" />
    </g>
  </g>
</svg>

<?xml version="1.0" encoding="UTF-8"?>
<!DOCTYPE svg PUBLIC '-//W3C//DTD SVG 1.0//EN'
          'http://www.w3.org/TR/2001/REC-SVG-20010904/DTD/svg10.dtd'>
<svg color-interpolation="auto" color-rendering="auto" fill="black" fill-opacity="1" font-family="'Dialog'" font-size="12px" font-style="normal" font-weight="normal" height="308" image-rendering="auto" shape-rendering="auto" stroke="black" stroke-dasharray="none" stroke-dashoffset="0" stroke-linecap="square" stroke-linejoin="miter" stroke-miterlimit="10" stroke-opacity="1" stroke-width="1" text-rendering="auto" width="1750" xmlns="http://www.w3.org/2000/svg" xmlns:xlink="http://www.w3.org/1999/xlink"
><!--Generated by the Batik Graphics2D SVG Generator--><defs id="genericDefs"
  /><g
  ><g fill="rgb(0,0,178)" font-family="sans-serif" font-size="0.75px" stroke="rgb(0,0,178)" transform="scale(50,50) translate(10.6457,10.5818) matrix(1,0,0,1,-10,-10)"
    ><path d="M-0.2062 0.1044 Q-0.271 0.1641 -0.3311 0.1641 Q-0.3805 0.1641 -0.4131 0.1332 Q-0.4457 0.1022 -0.4457 0.055 Q-0.4457 -0.0102 -0.3909 -0.0452 Q-0.3362 -0.0801 -0.234 -0.0801 L-0.2168 -0.0801 L-0.2168 -0.1281 Q-0.2168 -0.1973 -0.2878 -0.1973 Q-0.345 -0.1973 -0.4113 -0.1622 L-0.4113 -0.2219 Q-0.3384 -0.2515 -0.2747 -0.2515 Q-0.208 -0.2515 -0.1763 -0.2215 Q-0.1447 -0.1915 -0.1447 -0.1281 L-0.1447 0.0521 Q-0.1447 0.1139 -0.1066 0.1139 Q-0.1018 0.1139 -0.0927 0.1125 L-0.0875 0.1524 Q-0.1121 0.1641 -0.1417 0.1641 Q-0.1923 0.1641 -0.2062 0.1044 ZM-0.2168 0.0652 L-0.2168 -0.0377 L-0.241 -0.0384 Q-0.3003 -0.0384 -0.3369 -0.0159 Q-0.3735 0.0066 -0.3735 0.0433 Q-0.3735 0.0693 -0.3552 0.0872 Q-0.3369 0.1052 -0.3105 0.1052 Q-0.2655 0.1052 -0.2168 0.0652 ZM0.2018 0.155 L0.2018 -0.0347 L0.0121 -0.0347 L0.0121 -0.0889 L0.2018 -0.0889 L0.2018 -0.2786 L0.256 -0.2786 L0.256 -0.0889 L0.4457 -0.0889 L0.4457 -0.0347 L0.256 -0.0347 L0.256 0.155 Z" stroke="none"
    /></g
    ><g fill="rgb(0,0,178)" font-family="sans-serif" font-size="0.75px" stroke="rgb(0,0,178)" transform="matrix(50,0,0,50,282.2839,29.0906)"
    ><path d="M-0.4574 0.21 L-0.4574 -0.3727 L-0.3853 -0.3727 L-0.3853 -0.1174 Q-0.3409 -0.2009 -0.2523 -0.2009 Q-0.1805 -0.2009 -0.1393 -0.1485 Q-0.0981 -0.0962 -0.0981 -0.0053 Q-0.0981 0.0935 -0.1448 0.1541 Q-0.1915 0.2147 -0.2677 0.2147 Q-0.3384 0.2147 -0.3853 0.1605 L-0.394 0.21 ZM-0.3853 0.1107 Q-0.3296 0.1605 -0.2791 0.1605 Q-0.175 0.1605 -0.175 0.002 Q-0.175 -0.1379 -0.2673 -0.1379 Q-0.3278 -0.1379 -0.3853 -0.0724 ZM0.2135 0.2056 L0.2135 0.0159 L0.0238 0.0159 L0.0238 -0.0383 L0.2135 -0.0383 L0.2135 -0.228 L0.2677 -0.228 L0.2677 -0.0383 L0.4574 -0.0383 L0.4574 0.0159 L0.2677 0.0159 L0.2677 0.2056 Z" stroke="none"
    /></g
    ><g fill="rgb(0,0,178)" font-family="sans-serif" font-size="0.75px" stroke="rgb(0,0,178)" transform="matrix(50,0,0,50,32.2839,279.0906)"
    ><path d="M-0.3896 0.21 L-0.3896 -0.3727 L-0.3175 -0.3727 L-0.3175 -0.1174 Q-0.2732 -0.2009 -0.1846 -0.2009 Q-0.1128 -0.2009 -0.0716 -0.1485 Q-0.0304 -0.0962 -0.0304 -0.0053 Q-0.0304 0.0935 -0.0771 0.1541 Q-0.1238 0.2147 -0.2 0.2147 Q-0.2706 0.2147 -0.3175 0.1605 L-0.3263 0.21 ZM-0.3175 0.1107 Q-0.2618 0.1605 -0.2113 0.1605 Q-0.1073 0.1605 -0.1073 0.002 Q-0.1073 -0.1379 -0.1996 -0.1379 Q-0.26 -0.1379 -0.3175 -0.0724 ZM0.0645 0.0159 L0.0645 -0.0383 L0.3896 -0.0383 L0.3896 0.0159 Z" stroke="none"
    /></g
    ><g fill="rgb(0,0,178)" font-family="sans-serif" font-size="0.75px" stroke="rgb(0,0,178)" transform="matrix(50,0,0,50,282.2839,279.0906)"
    ><path d="M-0.1384 0.0949 Q-0.2032 0.1546 -0.2633 0.1546 Q-0.3127 0.1546 -0.3453 0.1237 Q-0.3779 0.0927 -0.3779 0.0455 Q-0.3779 -0.0197 -0.3232 -0.0547 Q-0.2684 -0.0896 -0.1663 -0.0896 L-0.149 -0.0896 L-0.149 -0.1376 Q-0.149 -0.2068 -0.2201 -0.2068 Q-0.2772 -0.2068 -0.3435 -0.1717 L-0.3435 -0.2314 Q-0.2706 -0.261 -0.2069 -0.261 Q-0.1403 -0.261 -0.1086 -0.231 Q-0.0769 -0.201 -0.0769 -0.1376 L-0.0769 0.0426 Q-0.0769 0.1045 -0.0388 0.1045 Q-0.0341 0.1045 -0.0249 0.103 L-0.0198 0.1429 Q-0.0443 0.1546 -0.074 0.1546 Q-0.1245 0.1546 -0.1384 0.0949 ZM-0.149 0.0558 L-0.149 -0.0471 L-0.1732 -0.0479 Q-0.2325 -0.0479 -0.2692 -0.0254 Q-0.3058 -0.0028 -0.3058 0.0338 Q-0.3058 0.0598 -0.2875 0.0777 Q-0.2692 0.0957 -0.2428 0.0957 Q-0.1978 0.0957 -0.149 0.0558 ZM0.0527 -0.0442 L0.0527 -0.0984 L0.3779 -0.0984 L0.3779 -0.0442 Z" stroke="none"
    /></g
    ><g font-family="sans-serif" font-size="0.75px" stroke-width="0.02" transform="matrix(50,0,0,50,532.2839,529.0906)"
    ><path d="M-9.4543 -10 L-5.9574 -10" fill="none"
      /><path d="M-5.9574 -10.075 L-5.9574 -9.925 L-5.5574 -10 Z" stroke="none"
    /></g
    ><g font-family="sans-serif" font-size="0.75px" stroke-width="0.02" transform="matrix(50,0,0,50,532.2839,529.0906)"
    ><path d="M-5 -9.5182 L-5 -5.7702" fill="none"
      /><path d="M-4.925 -5.7702 L-5.075 -5.7702 L-5 -5.3702 Z" stroke="none"
    /></g
    ><g font-family="sans-serif" font-size="0.75px" stroke-width="0.02" transform="matrix(50,0,0,50,532.2839,529.0906)"
    ><path d="M-5.4779 -5 L-9.1104 -5" fill="none"
      /><path d="M-9.1104 -4.925 L-9.1104 -5.075 L-9.5104 -5 Z" stroke="none"
    /></g
    ><g font-family="sans-serif" font-size="0.75px" stroke-width="0.02" transform="matrix(50,0,0,50,532.2839,529.0906)"
    ><path d="M-10 -5.4818 L-10 -9.2122" fill="none"
      /><path d="M-10.075 -9.2122 L-9.925 -9.2122 L-10 -9.6122 Z" stroke="none"
    /></g
    ><g font-family="sans-serif" font-size="0.75px" stroke-width="0.02" transform="matrix(50,0,0,50,532.2839,529.0906) translate(-10,-7.347)"
    ><circle cx="0" cy="0" r="0.2105" stroke="none"
    /></g
  ></g
></svg
>
